X:1
T:Title
%%score { ( 1 3 ) | 2 }
L:1/8
M:6/8
K:Ab
V:1 treble nm="Grand Piano"
V:3 treble 
V:2 bass 
V:1
 z3 z2[Q:1/4=108] [CE] | [CE]>[CF][CG] [CA][DB][=D_c] | [Ec][CA][Fd] [Ec]2 [CE] | %3
 [CE]>[CF][CG] AB[CA] | [DG]3- [DG]2 E | d>cd B=AB |[M:5/8] [Ec][=D_c][E=c] [CA]2 |[M:1/8] [EG] | %8
[M:3/4] [DF]>[DG] [EA] [=DB]2 [Dc] |[M:5/8] [EB]-[EB]- [EB]3 |[M:3/16] [Ge]3/2 | %11
[M:3/4] [Ec]>[DB] [CA] [Ec]2 [=D_c] |[M:5/8] [Ec]-[Ec]- [Ec]3 |[M:1/8] [Ec] | %14
[M:3/4] d>c B [Gd]2 [_Gc] | [Gd]4- [Gd][GB] |[M:5/8] [Ee]>[F=d][Ee] [Fc]2 |[M:1/8] [Fc] | %18
[M:3/4] [Fd]>[Fc] [FB] F2 [=DA] | G>F E d2 G |[M:5/8] [CA]-[CA]- [CA]3 |] %21
V:2
 z3 z2 [A,,A,] | [A,,A,]>[A,,A,][A,,A,] [A,,E,][A,,E,][A,,F,] | %2
 [A,,A,][A,,A,][A,,A,] [A,,A,]2 [A,,A,] | [A,,A,]>[A,,A,][A,,A,] [A,,E,]2 [A,,E,] | %4
 [B,,E,]3- [B,,E,]2 [E,G,] | [E,B,E]>[E,=A,E][E,B,E] [E,G,E][E,_G,E][E,=G,E] | %6
[M:5/8] [A,,A,][A,,A,][A,,A,] [A,,A,]2 |[M:1/8] [C,A,] | %8
[M:3/4] [D,A,]>[D,B,] [C,A,] [B,,A,]2 [B,,A,] |[M:5/8] [E,G,]-[E,G,]- [E,G,]3 |[M:3/16] [E,B,]3/2 | %11
[M:3/4] [A,,A,]>[A,,A,] [A,,E,] [A,,A,]2 [A,,A,] |[M:5/8] [A,,A,]-[A,,A,]- [A,,A,]3 | %13
[M:1/8] [A,,A,] |[M:3/4] [E,B,E]>[E,A,E] [E,G,E] [E,B,]2 [E,=A,] | [E,B,]4- [E,B,][D,B,] | %16
[M:5/8] [C,A,]>[_C,A,][=C,A,] [F,=A,]2 |[M:1/8] [F,=A,] | %18
[M:3/4] [B,,B,]>[C,=A,] [D,B,] [=D,B,]2 [B,,B,] | [E,B,D]>[E,A,D] [E,G,] [E,B,E]2 [E,B,D] | %20
[M:5/8] [A,,A,]-[A,,A,]- [A,,A,]3 |] %21
V:3
 x6 | x6 | x6 | z3 .C3 | x6 | x6 |[M:5/8] x5 |[M:1/8] x |[M:3/4] x6 |[M:5/8] x5 |[M:3/16] x3/2 | %11
[M:3/4] x6 |[M:5/8] x5 |[M:1/8] x |[M:3/4] x6 | x6 |[M:5/8] x5 |[M:1/8] x |[M:3/4] x6 | x6 | %20
[M:5/8] x5 |] %21

